packages/icons/src/SVG/volume-down.svg

<svg width="12" height="12" viewBox="0 0 12 12" >
<path d="M3 4H0V8H3L6 11V1L3 4Z" />
<path d="M7 8.8293C8.16519 8.41747 9 7.30623 9 6.00001C9 4.69379 8.16519 3.58255 7 3.17072V8.8293Z" />
</svg>

<!-- Generated by IcoMoon.io -->
<svg version="1.1" xmlns="http://www.w3.org/2000/svg" width="12" height="12" viewBox="0 0 12 12">
<title>volume-down</title>
<path fill="#4c505b" d="M3 4h-3v4h3l3 3v-10l-3 3z"></path>
<path fill="#4c505b" d="M7 8.829c1.165-0.412 2-1.523 2-2.829s-0.835-2.417-2-2.829v5.659z"></path>
</svg>
